**kern	**silbe	**harmony	**phrase	**leadinstrument	**rhyme	**timestamp	**harte
*ICvox	*	*M4/4	*	*	*	*	*M4/4
*VRlead	*	*	*	*	*	*	*
*Hstimme	*	*	*	*	*	*	*
*b-:	*	*b-:	*	*	*	*	*b-:
*M4/4	*	*	*	*	*	*	*
*clefC3	*	*	*	*	*	*	*
r;	.	1r;	.	r	.	0	N.C.
=1	=1	=1	=1	=1	=1	=1	=1
*>Letter>A	*>Letter>A	*>Letter>A	*>Letter>A	*>Letter>A	*>Letter>A	*>Letter>A	*>Letter>A
*>Label>Intro	*>Label>Intro	*>Label>Intro	*>Label>Intro	*>Label>Intro	*>Label>Intro	*>Label>Intro	*>Label>Intro
1r	.	2G-M	newline	piano	.	0.232	G-:maj
.	.	2FM	.	piano	.	2.105	F:maj
=2	=2	=2	=2	=2	=2	=2	=2
1r	.	4B-m	.	piano	.	3.979	B-:min
.	.	4A-M	.	piano	.	4.915	A-:maj/3
.	.	4A-Mm	.	piano	.	5.852	A-:7/4
.	.	4D-MM	.	piano	.	6.789	D-:maj7
=3	=3	=3	=3	=3	=3	=3	=3
1r	.	2G-M	newline	piano	.	7.725	G-:maj
.	.	2FM	.	piano	.	9.598	F:maj
=4	=4	=4	=4	=4	=4	=4	=4
1r	.	4B-m	.	piano	.	11.47	B-:min
.	.	2.A-M	.	piano	.	12.406	A-:maj/3
=5	=5	=5	=5	=5	=5	=5	=5
1r	.	2G-M	newline	piano	.	15.214	G-:maj
.	.	2FM	.	piano	.	17.097	F:maj
=6	=6	=6	=6	=6	=6	=6	=6
1r	.	4B-m	.	piano	.	18.979	B-:min
.	.	4A-M	.	piano	.	19.92	A-:maj/3
.	.	2D-MM	.	piano	.	20.861	D-:maj7
=7	=7	=7	=7	=7	=7	=7	=7
1r	.	2G-M	newline	piano	.	22.744	G-:maj
.	.	2FM	.	piano	.	24.588	F:maj
=8	=8	=8	=8	=8	=8	=8	=8
1r	.	1B-M	.	piano	.	26.432	B-:maj
=9	=9	=9	=9	=9	=9	=9	=9
*>Letter>A	*>Letter>A	*>Letter>A	*>Letter>A	*>Letter>A	*>Letter>A	*>Letter>A	*>Letter>A
*>Label>Verse	*>Label>Verse	*>Label>Verse	*>Label>Verse	*>Label>Verse	*>Label>Verse	*>Label>Verse	*>Label>Verse
8.r	.	2G-M	newline	voice	.	30.12	G-:maj
16~G-	I	.	.	.	.	.	.
16~B-	got	.	.	.	.	.	.
8d-	your	.	.	.	.	.	.
16d-	let-	.	.	.	.	.	.
16c	-ter	2FM	.	voice	.	32.003	F:maj
8.r	.	.	.	.	.	.	.
16c	from	.	.	.	.	.	.
16c	the	.	.	.	.	.	.
8d-	post	.	.	.	.	.	.
=10	=10	=10	=10	=10	=10	=10	=10
8e-q	_	.	.	.	.	.	.
8f	man	4B-m	.	voice	.	33.887	B-:min
16e-	just	.	.	.	.	.	.
16d-	the	.	.	.	.	.	.
16e-	o-	4A-M	.	voice	.	34.829	A-:maj/3
16d-	-ther	.	.	.	.	.	.
16d-Q	_	.	.	.	.	.	.
16e-	day	.	.	.	.	.	.
[16d-	_	.	.	.	.	.	.
2d-]	_	4A-Mm	.	voice	.	35.771	A-:7/4
.	.	4D-MM	.	voice	.	36.713	D-:maj7
=11	=11	=11	=11	=11	=11	=11	=11
4r	.	2G-M	newline	voice	.	37.655	G-:maj
16B-	So	.	.	.	.	.	.
16d-	I	.	.	.	.	.	.
16d-	de	.	.	.	.	.	.
16cQ	_	.	.	.	.	.	.
16d-	ci-	.	.	.	.	.	.
16c	-ded	2FM	.	voice	.	39.522	F:maj
16c	to	.	.	.	.	.	.
8c	write	.	.	.	.	.	.
16c	you	.	.	.	.	.	.
8F	this	.	.	.	.	.	.
[16c	song	.	.	.	.	.	.
=12	=12	=12	=12	=12	=12	=12	=12
16c]	_	4B-m	.	voice	.	41.389	B-:min
32d-	_	.	.	.	.	.	.
32c	_	.	.	.	.	.	.
[8B-	_	.	.	.	.	.	.
2B-]	_	2.A-M	.	voice	.	42.323	A-:maj/3
4r	.	.	.	.	.	.	.
=13	=13	=13	=13	=13	=13	=13	=13
8.r	.	2G-M	newline	voice	.	45.124	G-:maj
16D-	And	.	.	.	.	.	.
16d-	just	.	.	.	.	.	.
16d-	to	.	.	.	.	.	.
16d-	let	.	.	.	.	.	.
16d-Q	_	.	.	.	.	.	.
[16e-	you	.	.	.	.	.	.
16e-]	_	2FM	.	voice	.	46.991	F:maj
[8.e-	know	.	.	.	.	.	.
16e-]	_	.	.	.	.	.	.
8r	.	.	.	.	.	.	.
16d-	ex-	.	.	.	.	.	.
=14	=14	=14	=14	=14	=14	=14	=14
8e-q	_	.	.	.	.	.	.
8f	-act-	4B-m	.	voice	.	48.858	B-:min
16e-	-ly	.	.	.	.	.	.
16d-	the	.	.	.	.	.	.
16e-	way	4A-M	.	voice	.	49.792	A-:maj/3
16d-	I	.	.	.	.	.	.
16d-Q	_	.	.	.	.	.	.
16e-	feel	.	.	.	A	.	.
[16d-	_	.	.	.	.	.	.
2d-]	_	2D-MM	.	voice	.	50.726	D-:maj7
=15	=15	=15	=15	=15	=15	=15	=15
8.r	.	2G-M	newline	voice	.	52.593	G-:maj
16E-	to	.	.	.	.	.	.
16d-	let	.	.	.	.	.	.
16d-	you	.	.	.	.	.	.
32d-	know	.	.	.	.	.	.
[16.c	_	.	.	.	.	.	.
8c]	_	2FM	.	voice	.	54.473	F:maj
16F	my	.	.	.	.	.	.
32d-	love's	.	.	.	.	.	.
[32c	_	.	.	.	.	.	.
8c]	_	.	.	.	.	.	.
16c	for	.	.	.	.	.	.
16B-Q	_	.	.	.	.	.	.
[16c	real	.	.	.	A	.	.
=16	=16	=16	=16	=16	=16	=16	=16
16c]	_	1B-M	.	voice	.	56.352	B-:maj
32d-	_	.	.	.	.	.	.
32c	_	.	.	.	.	.	.
[8B-	_	.	.	.	.	.	.
4.B-]	_	.	.	.	.	.	.
8~fq	_	.	.	.	.	.	.
8~g-	Be	.	.	.	.	.	.
8e-q	_	.	.	.	.	.	.
8f	cause	.	.	.	.	.	.
16e-	I	.	.	.	.	.	.
16d-	_	.	.	.	.	.	.
=17	=17	=17	=17	=17	=17	=17	=17
*>Letter>B	*>Letter>B	*>Letter>B	*>Letter>B	*>Letter>B	*>Letter>B	*>Letter>B	*>Letter>B
*>Label>Chorus	*>Label>Chorus	*>Label>Chorus	*>Label>Chorus	*>Label>Chorus	*>Label>Chorus	*>Label>Chorus	*>Label>Chorus
4.d-	love	2E-mm	newline	voice	.	60.112	E-:min7
16e-	_	.	.	.	.	.	.
16d-Q	_	.	.	.	.	.	.
[16e-	you	.	.	.	.	.	.
4e-_	_	2A-M	.	voice	.	61.973	A-:maj
16e-]	_	.	.	.	.	.	.
8r	.	.	.	.	.	.	.
16~G-	and	.	.	.	.	.	.
=18	=18	=18	=18	=18	=18	=18	=18
8g-	I'll	1D-M	.	voice	.	63.834	D-:maj
16g-	do	.	.	.	.	.	.
[16g-	a	.	.	.	.	.	.
8g-]	_	.	.	.	.	.	.
16g-	ny-	.	.	.	(b	.	.
16f	-thing	.	.	.	B)	.	.
32e-	_	.	.	.	.	.	.
[16.d-	_	.	.	.	.	.	.
8d-_	_	.	.	.	.	.	.
4d-]	_	.	.	.	.	.	.
=19	=19	=19	=19	=19	=19	=19	=19
8.r	.	2E-mm	.	voice	.	67.557	E-:min7
16~D-	I'll	.	.	.	.	.	.
16d-	give	.	.	.	.	.	.
16d-	you	.	.	.	.	.	.
16d-	my	.	.	.	.	.	.
[16c	heart	.	.	.	.	.	.
4c]	_	2A-M	.	voice	.	69.418	A-:maj
16r	.	.	.	.	.	.	.
16c	my	.	.	.	.	.	.
8d-q	_	.	.	.	.	.	.
8e-	ev	.	.	.	.	.	.
=20	=20	=20	=20	=20	=20	=20	=20
8d-q	_	.	.	.	.	.	.
8e-	'ry-	2B-m	.	voice	(b	71.28	B-:min
32e-	-thing	.	.	.	B)	.	.
[16.d-	_	.	.	.	.	.	.
4d-]	_	.	.	.	.	.	.
8r	.	2A-M	.	voice	.	73.141	A-:maj
8e-q	_	.	.	.	.	.	.
8f	Be	.	.	.	.	.	.
8e-q	_	.	.	.	.	.	.
8f	cause	.	.	.	.	.	.
16e-	I	.	.	.	.	.	.
16d-	_	.	.	.	.	.	.
=21	=21	=21	=21	=21	=21	=21	=21
4.d-	love	2E-mm	newline	voice	.	75.002	E-:min7
16e-	_	.	.	.	.	.	.
16d-Q	_	.	.	.	.	.	.
[16e-	you	.	.	.	.	.	.
4e-_	_	2A-M	.	voice	.	76.878	A-:maj
16e-]	_	.	.	.	.	.	.
8r	.	.	.	.	.	.	.
16~G-	I'll	.	.	.	.	.	.
=22	=22	=22	=22	=22	=22	=22	=22
8g-	be	1D-M	.	voice	.	78.753	D-:maj
16g-	right	.	.	.	.	.	.
[16g-	by	.	.	.	.	.	.
8g-]	_	.	.	.	.	.	.
16g-	your	.	.	.	.	.	.
16e-Q	_	.	.	.	.	.	.
16f	side	.	.	.	C	.	.
16e-	_	.	.	.	.	.	.
[16d-	_	.	.	.	.	.	.
4d-]	_	.	.	.	.	.	.
8r	.	.	.	.	.	.	.
=23	=23	=23	=23	=23	=23	=23	=23
8.r	.	2E-mm	.	voice	.	82.503	E-:min7
16E-	To	.	.	.	.	.	.
16d-	be	.	.	.	.	.	.
16d-	your	.	.	.	.	.	.
16cQ	_	.	.	.	.	.	.
32d-	light,	.	.	.	.	.	.
[16.c	_	.	.	.	.	.	.
8c]	_	2A-Mm	.	voice	.	84.379	A-:7
16F	to	.	.	.	.	.	.
32d-	be	.	.	.	.	.	.
[32c	_	.	.	.	.	.	.
8c]	_	.	.	.	.	.	.
16c	your	.	.	.	.	.	.
16B-Q	_	.	.	.	.	.	.
[16c	guide	.	.	.	C	.	.
=24	=24	=24	=24	=24	=24	=24	=24
16c]	_	1B-M	.	voice	.	86.254	B-:maj
32d-	_	.	.	.	.	.	.
32c	_	.	.	.	.	.	.
[8B-	_	.	.	.	.	.	.
2B-]	_	.	.	.	.	.	.
4r	.	.	.	.	.	.	.
=25	=25	=25	=25	=25	=25	=25	=25
*>Letter>A	*>Letter>A	*>Letter>A	*>Letter>A	*>Letter>A	*>Letter>A	*>Letter>A	*>Letter>A
*>Label>Verse	*>Label>Verse	*>Label>Verse	*>Label>Verse	*>Label>Verse	*>Label>Verse	*>Label>Verse	*>Label>Verse
8.r	.	2G-M	newline	voice	.	90.005	G-:maj
16~D-	If	.	.	.	.	.	.
16~B-	you	.	.	.	.	.	.
8d-	should	.	.	.	.	.	.
[16d-	fear	.	.	.	.	.	.
8d-]	_	2FM	.	voice	.	91.878	F:maj
8r	.	.	.	.	.	.	.
8r	.	.	.	.	.	.	.
8B-	that	.	.	.	.	.	.
=26	=26	=26	=26	=26	=26	=26	=26
8f	I	4B-m	.	voice	.	93.752	B-:min
16e-	don-	.	.	.	.	.	.
16d-	-tr-	.	.	.	.	.	.
16e-	-real-	4A-M	.	voice	.	94.688	A-:maj/3
16d-	-ly	.	.	.	.	.	.
16d-Q	_	.	.	.	.	.	.
16e-	care	.	.	.	.	.	.
[16d-	_	.	.	.	.	.	.
2d-]	_	4A-Mm	.	voice	.	95.625	A-:7/4
.	.	4D-MM	.	voice	.	96.562	D-:maj7
=27	=27	=27	=27	=27	=27	=27	=27
8.r	.	2G-M	newline	voice	.	97.499	G-:maj
16D-	and	.	.	.	.	.	.
16d-	that	.	.	.	.	.	.
8d-	you're	.	.	.	.	.	.
[16c	star	.	.	.	.	.	.
16c]	_	2FM	.	voice	.	99.358	F:maj
8c	ting	.	.	.	.	.	.
[16B-	to	.	.	.	.	.	.
16B-]	_	.	.	.	.	.	.
8B-	lose	.	.	.	.	.	.
16E-Q	_	.	.	.	.	.	.
[16F	ground	.	.	.	D	.	.
=28	=28	=28	=28	=28	=28	=28	=28
2F]	_	4B-m	.	voice	.	101.218	B-:min
.	.	2.A-M	.	voice	.	102.148	A-:maj/3
2r	.	.	.	.	.	.	.
=29	=29	=29	=29	=29	=29	=29	=29
8.r	.	2G-M	newline	voice	.	104.937	G-:maj
16~D-	just	.	.	.	.	.	.
16~B-	let	.	.	.	.	.	.
16d-	me	.	.	.	.	.	.
16d-	re-	.	.	.	.	.	.
16B-	-as-	.	.	.	.	.	.
8e-	-sure	2FM	.	voice	.	106.802	F:maj
8d-q	_	.	.	.	.	.	.
[8e-	you	.	.	.	.	.	.
8e-]	_	.	.	.	.	.	.
16r	.	.	.	.	.	.	.
16d-	that	.	.	.	.	.	.
=30	=30	=30	=30	=30	=30	=30	=30
8f	you	4B-m	.	voice	.	108.668	B-:min
16e-	can	.	.	.	.	.	.
16d-	_	.	.	.	.	.	.
16e-	count	4A-M	.	voice	.	109.601	A-:maj/3
16d-	on	.	.	.	.	.	.
16d-Q	_	.	.	.	.	.	.
16e-	me	.	.	.	.	.	.
[16d-	_	.	.	.	.	.	.
2d-]	_	2D-MM	.	voice	.	110.534	D-:maj7
=31	=31	=31	=31	=31	=31	=31	=31
8.r	.	2G-M	newline	voice	.	112.4	G-:maj
16D-	And	.	.	.	.	.	.
16d-	that	.	.	.	.	.	.
8d-	I'll	.	.	.	.	.	.
8~cq	_	.	.	.	.	.	.
[16~d-	al	.	.	.	.	.	.
16~d-]	_	2FM	.	voice	.	114.282	F:maj
8.~d-	ways	.	.	.	.	.	.
16r	.	.	.	.	.	.	.
16c	be	.	.	.	.	.	.
16F	a-	.	.	.	.	.	.
[16c	-round	.	.	.	D	.	.
=32	=32	=32	=32	=32	=32	=32	=32
16c]	_	1B-M	.	voice	.	116.164	B-:maj
32d-	_	.	.	.	.	.	.
32c	_	.	.	.	.	.	.
[8B-	_	.	.	.	.	.	.
4B-_	_	.	.	.	.	.	.
8B-]	_	.	.	.	.	.	.
8~fq	_	.	.	.	.	.	.
8~g-	Be	.	.	.	.	.	.
8~e-q	_	.	.	.	.	.	.
8~f	cause	.	.	.	.	.	.
16~e-	I	.	.	.	.	.	.
16~d-	_	.	.	.	.	.	.
=33	=33	=33	=33	=33	=33	=33	=33
*>Letter>B	*>Letter>B	*>Letter>B	*>Letter>B	*>Letter>B	*>Letter>B	*>Letter>B	*>Letter>B
*>Label>Chorus	*>Label>Chorus	*>Label>Chorus	*>Label>Chorus	*>Label>Chorus	*>Label>Chorus	*>Label>Chorus	*>Label>Chorus
4.d-	love	2E-mm	newline	voice	.	119.929	E-:min7
16e-	_	.	.	.	.	.	.
16d-Q	_	.	.	.	.	.	.
[16e-	you	.	.	.	.	.	.
4e-_	_	2A-M	.	voice	.	121.793	A-:maj
16e-]	_	.	.	.	.	.	.
8r	.	.	.	.	.	.	.
16A-	my	.	.	.	.	.	.
=34	=34	=34	=34	=34	=34	=34	=34
8g-	heart's	1D-M	.	voice	.	123.657	D-:maj
16g-	an	.	.	.	.	.	.
[16g-	o	.	.	.	.	.	.
8g-]	_	.	.	.	.	.	.
16g-	pen	.	.	.	.	.	.
16f	door!	.	.	.	.	.	.
32e-	_	.	.	.	.	.	.
[16.d-	_	.	.	.	.	.	.
8d-_	_	.	.	.	.	.	.
4d-]	_	.	.	.	.	.	.
=35	=35	=35	=35	=35	=35	=35	=35
8r	.	2E-mm	.	voice	.	127.385	E-:min7
8cq	_	.	.	.	.	.	.
8d-	Girl	.	.	.	.	.	.
8cq	_	.	.	.	.	.	.
8d-	won't	.	.	.	.	.	.
16d-	you	.	.	.	.	.	.
[16c	please	.	.	.	.	.	.
4c]	_	2A-M	.	voice	.	129.249	A-:maj
12r	.	.	.	.	.	.	.
8d-q	_	.	.	.	.	.	.
12e-	come	.	.	.	.	.	.
8e-q	_	.	.	.	.	.	.
[12f	on	.	.	.	.	.	.
=36	=36	=36	=36	=36	=36	=36	=36
8d-q	_	.	.	.	.	.	.
16e-	_	2B-m	.	voice	.	131.113	B-:min
32e-	in	.	.	.	.	.	.
[16.d-	_	.	.	.	.	.	.
16d-_	_	.	.	.	.	.	.
4d-]	_	.	.	.	.	.	.
8r	.	2A-M	.	voice	.	132.977	A-:maj
8e-q	_	.	.	.	.	.	.
8f]	Be	.	.	.	.	.	.
8e-q	_	.	.	.	.	.	.
8f	cause	.	.	.	.	.	.
16e-	I	.	.	.	.	.	.
16d-	_	.	.	.	.	.	.
=37	=37	=37	=37	=37	=37	=37	=37
4.d-	love	2E-mm	newline	voice	.	134.841	E-:min7
16e-	_	.	.	.	.	.	.
16d-Q	_	.	.	.	.	.	.
[16e-	you	.	.	.	.	.	.
4e-]	_	2A-M	.	voice	.	136.717	A-:maj
8.r	.	.	.	.	.	.	.
16~G-	I'll	.	.	.	.	.	.
=38	=38	=38	=38	=38	=38	=38	=38
8g-	be	1D-M	.	voice	.	138.594	D-:maj
16g-	right	.	.	.	.	.	.
16g-Q	_	.	.	.	.	.	.
[16a-	by	.	.	.	.	.	.
8g-	_	.	.	.	.	.	.
16g-	your	.	.	.	.	.	.
16e-Q	_	.	.	.	.	.	.
16f	side	.	.	.	C	.	.
16e-	_	.	.	.	.	.	.
[16d-	_	.	.	.	.	.	.
4d-]	_	.	.	.	.	.	.
8r	.	.	.	.	.	.	.
=39	=39	=39	=39	=39	=39	=39	=39
8.r	.	2E-mm	.	voice	.	142.347	E-:min7
16E-	To	.	.	.	.	.	.
8d-	be	.	.	.	.	.	.
16d-	your	.	.	.	.	.	.
32c	light,	.	.	.	.	.	.
32d-	_	.	.	.	.	.	.
8c	_	2A-Mm	.	voice	.	144.224	A-:7
16F	to	.	.	.	.	.	.
32d-	be	.	.	.	.	.	.
[32c	_	.	.	.	.	.	.
8c]	_	.	.	.	.	.	.
16c	your	.	.	.	.	.	.
16B-Q	_	.	.	.	.	.	.
[16c	guide	.	.	.	C	.	.
=40	=40	=40	=40	=40	=40	=40	=40
16c]	_	1B-M	.	voice	.	146.1	B-:maj
32d-	_	.	.	.	.	.	.
32c	_	.	.	.	.	.	.
[8B-	_	.	.	.	.	.	.
2B-]	_	.	.	.	.	.	.
4r	.	.	.	.	.	.	.
=41	=41	=41	=41	=41	=41	=41	=41
*>Letter>A	*>Letter>A	*>Letter>A	*>Letter>A	*>Letter>A	*>Letter>A	*>Letter>A	*>Letter>A
*>Label>Solo	*>Label>Solo	*>Label>Solo	*>Label>Solo	*>Label>Solo	*>Label>Solo	*>Label>Solo	*>Label>Solo
1r	.	2G-M	newline	synthesizer	.	149.853	G-:maj
.	.	2FM	.	synthesizer	.	151.717	F:maj
=42	=42	=42	=42	=42	=42	=42	=42
1r	.	4B-m	.	synthesizer	.	153.58	B-:min
.	.	4A-M	.	synthesizer	.	154.512	A-:maj/3
.	.	4A-Mm	.	synthesizer	.	155.444	A-:7/4
.	.	4D-MM	.	synthesizer	.	156.376	D-:maj7
=43	=43	=43	=43	=43	=43	=43	=43
1r	.	2G-M	newline	synthesizer	.	157.307	G-:maj
.	.	2FM	.	synthesizer	.	159.18	F:maj
=44	=44	=44	=44	=44	=44	=44	=44
1r	.	4B-m	.	synthesizer	.	161.052	B-:min
.	.	2.A-M	.	synthesizer	.	161.988	A-:maj/3
=45	=45	=45	=45	=45	=45	=45	=45
1r	.	2G-M	newline	synthesizer	.	164.796	G-:maj
.	.	2FM	.	synthesizer	.	166.657	F:maj
=46	=46	=46	=46	=46	=46	=46	=46
1r	.	4B-m	.	synthesizer	.	168.518	B-:min
.	.	4A-M	.	synthesizer	.	169.449	A-:maj/3
.	.	2D-MM	.	synthesizer	.	170.38	D-:maj7
=47	=47	=47	=47	=47	=47	=47	=47
1r	.	2G-M	newline	synthesizer	.	172.241	G-:maj
.	.	2FM	.	synthesizer	.	174.109	F:maj
=48	=48	=48	=48	=48	=48	=48	=48
1r	.	1B-M	.	synthesizer	.	175.978	B-:maj
=49	=49	=49	=49	=49	=49	=49	=49
*>Letter>A	*>Letter>A	*>Letter>A	*>Letter>A	*>Letter>A	*>Letter>A	*>Letter>A	*>Letter>A
*>Label>Verse	*>Label>Verse	*>Label>Verse	*>Label>Verse	*>Label>Verse	*>Label>Verse	*>Label>Verse	*>Label>Verse
8.r	.	2G-M	newline	voice	.	179.716	G-:maj
16~D-	If	.	.	.	.	.	.
16~B-	you	.	.	.	.	.	.
8d-	should	.	.	.	.	.	.
[16d-	fear	.	.	.	.	.	.
8d-]	_	2FM	.	voice	.	181.576	F:maj
8r	.	.	.	.	.	.	.
8r	.	.	.	.	.	.	.
8B-	that	.	.	.	.	.	.
=50	=50	=50	=50	=50	=50	=50	=50
8e-q	_	.	.	.	.	.	.
8f	I	4B-m	.	voice	.	183.435	B-:min
16e-	don-	.	.	.	.	.	.
16d-	-tr-	.	.	.	.	.	.
16e-	-real-	4A-M	.	voice	.	184.365	A-:maj/3
16d-	-ly	.	.	.	.	.	.
16d-Q	_	.	.	.	.	.	.
16e-	care	.	.	.	.	.	.
[16d-	_	.	.	.	.	.	.
2d-]	_	4A-Mm	.	voice	.	185.295	A-:7/4
.	.	4D-MM	.	voice	.	186.225	D-:maj7
=51	=51	=51	=51	=51	=51	=51	=51
8.r	.	2G-M	newline	voice	.	187.155	G-:maj
16~D-	and	.	.	.	.	.	.
16d-	that	.	.	.	.	.	.
8d-	you're	.	.	.	.	.	.
[16c	star	.	.	.	.	.	.
16c]	_	2FM	.	voice	.	189.035	F:maj
8c	ting	.	.	.	.	.	.
[16B-	to	.	.	.	.	.	.
16B-]	_	.	.	.	.	.	.
8B-	lose	.	.	.	.	.	.
16E-Q	_	.	.	.	.	.	.
[16F	ground	.	.	.	D	.	.
=52	=52	=52	=52	=52	=52	=52	=52
2F]	_	4B-m	.	voice	.	190.915	B-:min
.	.	2.A-M	.	voice	.	191.855	A-:maj/3
2r	.	.	.	.	.	.	.
=53	=53	=53	=53	=53	=53	=53	=53
8.r	.	2G-M	newline	voice	.	194.675	G-:maj
16~D-	just	.	.	.	.	.	.
16B-	let	.	.	.	.	.	.
16d-	me	.	.	.	.	.	.
16d-	re-	.	.	.	.	.	.
16B-	-as-	.	.	.	.	.	.
8e-	-sure	2FM	.	voice	.	196.549	F:maj
8d-q	_	.	.	.	.	.	.
[8e-	you	.	.	.	.	.	.
8e-]	_	.	.	.	.	.	.
16r	.	.	.	.	.	.	.
16d-	that	.	.	.	.	.	.
=54	=54	=54	=54	=54	=54	=54	=54
8f	you	4B-m	.	voice	.	198.424	B-:min
8f	can	.	.	.	.	.	.
8g-q	_	.	.	.	.	.	.
8a-]	count	4A-M	.	voice	.	199.362	A-:maj/3
16a-	on	.	.	.	.	.	.
16~e-Q	_	.	.	.	.	.	.
16~f	me	.	.	.	.	.	.
32~e-	_	2D-MM	.	voice	.	200.299	D-:maj7
[16.d-	_	.	.	.	.	.	.
8d-_	_	.	.	.	.	.	.
4d-]	_	.	.	.	.	.	.
=55	=55	=55	=55	=55	=55	=55	=55
8.r	.	2G-M	newline	voice	.	202.174	G-:maj
16D-	And	.	.	.	.	.	.
16d-	I	.	.	.	.	.	.
8d-	will	.	.	.	.	.	.
32c	al	.	.	.	.	.	.
32d-	_	.	.	.	.	.	.
16d-	_	2FM	.	voice	.	204.034	F:maj
8.F	ways	.	.	.	.	.	.
16r	.	.	.	.	.	.	.
16d-	be	.	.	.	.	.	.
16c	a	.	.	.	.	.	.
16B-Q	_	.	.	.	.	.	.
[16c	round	.	.	.	D	.	.
=56	=56	=56	=56	=56	=56	=56	=56
16c]	_	1B-M	.	voice	.	205.895	B-:maj
32d-	_	.	.	.	.	.	.
32c	_	.	.	.	.	.	.
[8B-	_	.	.	.	.	.	.
4B-_	_	.	.	.	.	.	.
8B-]	_	.	.	.	.	.	.
8fq	_	.	.	.	.	.	.
8g-	Be	.	.	.	.	.	.
8e-q	_	.	.	.	.	.	.
8f	cause	.	.	.	.	.	.
16e-	I	.	.	.	.	.	.
16d-	_	.	.	.	.	.	.
=57	=57	=57	=57	=57	=57	=57	=57
*>Letter>B	*>Letter>B	*>Letter>B	*>Letter>B	*>Letter>B	*>Letter>B	*>Letter>B	*>Letter>B
*>Label>Chorus	*>Label>Chorus	*>Label>Chorus	*>Label>Chorus	*>Label>Chorus	*>Label>Chorus	*>Label>Chorus	*>Label>Chorus
4.d-	love	2E-mm	newline	voice	.	209.615	E-:min7
16e-	_	.	.	.	.	.	.
16d-Q	_	.	.	.	.	.	.
[16e-	you	.	.	.	.	.	.
4e-_	_	2A-M	.	voice	.	211.481	A-:maj
16e-]	_	.	.	.	.	.	.
8r	.	.	.	.	.	.	.
16~G-	my	.	.	.	.	.	.
=58	=58	=58	=58	=58	=58	=58	=58
8g-	heart's	1D-M	.	voice	.	213.346	D-:maj
16g-	an	.	.	.	.	.	.
16g-Q	_	.	.	.	.	.	.
[16a-	o	.	.	.	.	.	.
8a-]	_	.	.	.	.	.	.
16a-	pen	.	.	.	.	.	.
16e-Q	_	.	.	.	.	.	.
16f	door	.	.	.	.	.	.
16e-	_	.	.	.	.	.	.
[16d-	_	.	.	.	.	.	.
4d-]	_	.	.	.	.	.	.
8r	.	.	.	.	.	.	.
=59	=59	=59	=59	=59	=59	=59	=59
8r	.	2E-mm	.	voice	.	217.076	E-:min7
8cq	_	.	.	.	.	.	.
8d-	Girl	.	.	.	.	.	.
8cq	_	.	.	.	.	.	.
8d-	won't	.	.	.	.	.	.
16d-	you	.	.	.	.	.	.
16B-Q	_	.	.	.	.	.	.
[16c	please	.	.	.	.	.	.
4c]	_	2A-M	.	voice	.	218.942	A-:maj
12r	.	.	.	.	.	.	.
8d-q	_	.	.	.	.	.	.
12e-	come	.	.	.	.	.	.
8e-q	_	.	.	.	.	.	.
[12f	on	.	.	.	.	.	.
=60	=60	=60	=60	=60	=60	=60	=60
8d-q	_	.	.	.	.	.	.
16e-	_	2B-m	.	voice	.	220.807	B-:min
32e-	in	.	.	.	.	.	.
[16.d-	_	.	.	.	.	.	.
16d-_	_	.	.	.	.	.	.
4d-]	_	.	.	.	.	.	.
8r	.	2A-M	.	voice	.	222.672	A-:maj
8e-q	_	.	.	.	.	.	.
8f]	Be	.	.	.	.	.	.
8e-q	_	.	.	.	.	.	.
8f	cause	.	.	.	.	.	.
16e-	I	.	.	.	.	.	.
16d-	_	.	.	.	.	.	.
=61	=61	=61	=61	=61	=61	=61	=61
4.d-	love	2E-mm	newline	voice	.	224.537	E-:min7
16e-	_	.	.	.	.	.	.
16d-Q	_	.	.	.	.	.	.
[16e-	you	.	.	.	.	.	.
4e-]	_	2A-M	.	voice	.	226.413	A-:maj
8.r	.	.	.	.	.	.	.
16~G-	I'll	.	.	.	.	.	.
=62	=62	=62	=62	=62	=62	=62	=62
8f	be	1D-M	.	voice	.	228.288	D-:maj
16f	right	.	.	.	.	.	.
16g-Q	_	.	.	.	.	.	.
[16a-	by	.	.	.	.	.	.
8a-]	_	.	.	.	.	.	.
16a-	your	.	.	.	.	.	.
16e-Q	_	.	.	.	.	.	.
16f	side	.	.	.	.	.	.
32e-	_	.	.	.	.	.	.
[16.d-	_	.	.	.	.	.	.
4d-]	_	.	.	.	.	.	.
8r	.	.	.	.	.	.	.
=63	=63	=63	=63	=63	=63	=63	=63
8.r	.	2E-mm	.	voice	.	232.038	E-:min7
16E-	To	.	.	.	.	.	.
16d-	be	.	.	.	.	.	.
16d-	_	.	.	.	.	.	.
32c	your	.	.	.	.	.	.
32d-	_	.	.	.	.	.	.
[16c	light,	.	.	.	.	.	.
8c]	_	2A-Mm	.	voice	.	233.914	A-:7
16F	to	.	.	.	.	.	.
32d-	be	.	.	.	.	.	.
[32c	_	.	.	.	.	.	.
8c]	_	.	.	.	.	.	.
16c	your	.	.	.	.	.	.
16B-Q	_	.	.	.	.	.	.
[16c	guide	.	.	.	.	.	.
=64	=64	=64	=64	=64	=64	=64	=64
16c]	_	1B-M	.	voice	.	235.789	B-:maj
32d-	_	.	.	.	.	.	.
32c	_	.	.	.	.	.	.
[8B-	_	.	.	.	.	.	.
4B-_	_	.	.	.	.	.	.
4.B-]	_	.	.	.	.	.	.
8r	.	.	.	.	.	.	.
=65	=65	=65	=65	=65	=65	=65	=65
*>Letter>B2	*>Letter>B2	*>Letter>B2	*>Letter>B2	*>Letter>B2	*>Letter>B2	*>Letter>B2	*>Letter>B2
*>Label>Fadeout	*>Label>Fadeout	*>Label>Fadeout	*>Label>Fadeout	*>Label>Fadeout	*>Label>Fadeout	*>Label>Fadeout	*>Label>Fadeout
1r	.	2E-mm	newline	piano	.	239.539	E-:min7
.	.	2A-M	.	piano	.	241.439	A-:maj
=66	=66	=66	=66	=66	=66	=66	=66
1r	.	1D-M	.	piano	.	243.338	D-:maj
=67	=67	=67	=67	=67	=67	=67	=67
1r	.	2E-mm	.	piano	.	247.136	E-:min7
.	.	2A-M	.	piano	.	249.035	A-:maj
=68	=68	=68	=68	=68	=68	=68	=68
1r	.	2B-m	.	piano	.	250.934	B-:min
.	.	2A-M	.	piano	.	252.833	A-:maj
=69	=69	=69	=69	=69	=69	=69	=69
1r	.	1E-m	.	piano	.	254.733	E-:min
r;	.	1r;	.	r	.	258.531	N.C.
r;	.	1r;	.	r	.	262.269	N.C.
*-	*-	*-	*-	*-	*-	*-	*-
!!!BillboardChartDate: 1991/02/16, 1991/02/23
!!!BillboardPeak: 1, 1
!!!BillboardWeeksOnChart: 23, 23
!!!COC: Stevie B
!!!ENC: Nathaniel Condit-Schultz
!!!EST: Awating manual error checking and editing.
!!!OTL: Because I Love You (The Postman Song)
!!!RDF**chordsym: original McGill chord annotation + (implied pitch class set, with bass pitch in first position)
!!!RDF**harmony: **recip + pitch class of root + harmonic quality
!!!RDF**leadinstrument: original McGill primary instrumentation annotation
!!!RDF**phrase: newline = linebreak in original McGill transcription
!!!RDF**timestamp: McGill audio timestamp in seconds
!!!RDT: 2017/01/12/
!!!SampleActualRank: 49, 65
!!!SampleID#: 242, 782
!!!SampleTargetRank: 50, 63
